assets/efishery/kerang-fill.svg

<svg width="24" height="25" viewBox="0 0 24 25" fill="none" xmlns="http://www.w3.org/2000/svg">
<path fill-rule="evenodd" clip-rule="evenodd" d="M12.0264 3.27344C10.4061 3.27344 9.0943 4.3624 8.67939 5.78673C7.82946 5.19565 6.68679 5.05372 5.66439 5.55238C3.96416 6.38164 3.45516 8.56366 4.61299 10.0596L5.05127 10.6259C4.13267 10.5699 3.19265 10.951 2.57954 11.7646C1.44811 13.266 2.03969 15.4316 3.77733 16.1493L8.30614 18.0198C8.04518 18.392 7.9266 18.8668 8.022 19.3575L8.21644 20.3575C8.37633 21.1798 9.09655 21.7734 9.93427 21.7734H13.6559C14.5294 21.7734 15.2691 21.1294 15.3893 20.2642L15.5282 19.2642C15.587 18.8409 15.4898 18.436 15.2835 18.1032L20.0197 16.1463C21.7563 15.4287 22.3474 13.2643 21.2166 11.7636C20.5978 10.9425 19.6459 10.5621 18.7193 10.6271L19.1608 10.0566C20.3179 8.56139 19.809 6.38057 18.1097 5.55175C17.1779 5.09726 16.1461 5.17517 15.3273 5.64039C14.8676 4.28848 13.5908 3.27344 12.0264 3.27344ZM12.0245 14.9233L12.2561 14.0122L13.9499 7.23703C14.2628 5.98565 13.3163 4.77344 12.0264 4.77344C10.7365 4.77344 9.79006 5.98565 10.1029 7.23703L12.0245 14.9233ZM17.9745 9.13865L13.611 14.7773L13.7107 14.3788L15.3665 7.86664C15.598 6.95604 16.6077 6.48806 17.4522 6.89994C18.2966 7.31183 18.5495 8.39558 17.9745 9.13865ZM17.8485 12.6389C18.4067 11.9359 19.4784 11.9494 20.0186 12.6663C20.5588 13.3832 20.2765 14.4172 19.4469 14.76L14.5616 16.7785L17.8485 12.6389ZM6.32195 6.90057C7.16729 6.48827 8.17799 6.95677 8.40968 7.86831L10.168 14.7862L5.7992 9.14153C5.22354 8.39775 5.47661 7.31287 6.32195 6.90057ZM5.9497 12.64C5.39106 11.9362 4.31823 11.9497 3.77749 12.6673C3.23675 13.3849 3.51948 14.4199 4.34995 14.7629L9.23714 16.7814L5.9497 12.64Z" fill="#1D1D1D"/>
</svg>

<svg viewBox="0 0 24 25" xmlns="http://www.w3.org/2000/svg">
  <path fill-rule="evenodd" clip-rule="evenodd" d="M12.026 3.273A3.483 3.483 0 0 0 8.68 5.787a2.983 2.983 0 0 0-4.066 4.273l.438.566a2.873 2.873 0 0 0-1.274 5.523l4.53 1.87a1.74 1.74 0 0 0-.285 1.339l.194 1a1.75 1.75 0 0 0 1.718 1.415h3.722a1.75 1.75 0 0 0 1.733-1.509l.14-1a1.739 1.739 0 0 0-.245-1.16l4.736-1.958a2.872 2.872 0 0 0-1.3-5.519l.44-.57a2.982 2.982 0 0 0-3.833-4.417 3.482 3.482 0 0 0-3.3-2.367zm-.002 11.65.232-.91 1.694-6.776a1.983 1.983 0 1 0-3.847 0l1.921 7.686zm5.95-5.784-4.363 5.638.1-.398 1.655-6.512a1.482 1.482 0 1 1 2.608 1.272zm-.125 3.5a1.372 1.372 0 1 1 1.598 2.121l-4.885 2.019 3.287-4.14zM6.322 6.9a1.483 1.483 0 0 1 2.088.967l1.758 6.918-4.369-5.644A1.483 1.483 0 0 1 6.322 6.9zM5.95 12.64a1.373 1.373 0 1 0-1.6 2.123l4.887 2.018L5.95 12.64z"/>
</svg>
